assets/maya/original.svg

<svg viewBox="0 0 128 128" xmlns="http://www.w3.org/2000/svg" xmlns:xlink="http://www.w3.org/1999/xlink"><linearGradient id="a" gradientUnits="userSpaceOnUse" x1="100.777" x2="86.576" y1="85.094" y2="91.058"><stop offset=".09" stop-color="#1a5964"/><stop offset=".3" stop-color="#137078"/><stop offset=".5" stop-color="#0e8085"/><stop offset=".66" stop-color="#0c858a"/><stop offset="1" stop-color="#0a8b8f"/></linearGradient><linearGradient id="b" gradientUnits="userSpaceOnUse" x1="99.581" x2="130.166" y1="56.123" y2="75.523"><stop offset="0" stop-color="#079ea0"/><stop offset=".43" stop-color="#14878e"/><stop offset="1" stop-color="#256a77"/></linearGradient><linearGradient id="c" gradientUnits="userSpaceOnUse" x1="112" x2="112" y1="16.835" y2="120.497"><stop offset="0" stop-color="#b4b4b4"/><stop offset=".8" stop-color="#03abab"/><stop offset="1" stop-color="#137980"/></linearGradient><linearGradient id="d" gradientUnits="userSpaceOnUse" x1="59.349" x2="135.485" y1="57.417" y2="42.575"><stop offset="0" stop-color="#0f5d64"/><stop offset=".1" stop-color="#097a7e"/><stop offset=".23" stop-color="#049395"/><stop offset=".34" stop-color="#01a3a3"/><stop offset=".43" stop-color="#00a8a8"/><stop offset="1" stop-color="#4ebcc1"/></linearGradient><linearGradient id="e" gradientUnits="userSpaceOnUse" x1="-10.003" x2="26.772" y1="72.033" y2="50.748"><stop offset="0" stop-color="#00a9a9"/><stop offset=".65" stop-color="#049496"/><stop offset="1" stop-color="#088286"/></linearGradient><linearGradient id="f" gradientUnits="userSpaceOnUse" x1="2.06" x2="32.014" y1="91.643" y2="89.985"><stop offset="0" stop-color="#20626e"/><stop offset="1" stop-color="#069d9f"/></linearGradient><linearGradient id="g" gradientUnits="userSpaceOnUse" x1="41.036" x2="36.336" y1="5.266" y2="101.578"><stop offset="0" stop-color="#99cbd2"/><stop offset=".9" stop-color="#498f93"/><stop offset="1" stop-color="#2e7b7d"/></linearGradient><path d="m98 121h3v-72l-6 9v56z" fill="url(#a)"/><path d="m98 121v-70l23-44h5v54l-22 60z" fill="url(#b)"/><path d="m126 121h-28c2.9-5.7 14.1-29.2 19-48 8.5-33.1 9-58 9-58z" fill="url(#c)"/><path d="m126 7h-37l-26 62 11 30h1c.4 0 1-.3 2-2 4.1-7.6 49-90 49-90z" fill="url(#d)"/><path d="m2 121.7 3-.7 27-49v-16l-27-47-3-1.6z" fill="url(#e)"/><path d="m32 59.1c-2.3 6.9-7.9 23.6-13.6 34.3-10.2 19.6-16.4 28.3-16.4 28.3s23.7 2 30-5.7v-56z" fill="url(#f)"/><path d="m52 97c1 1.8 1.6 2 2 2h21c.2-.2.4-.4.4-.7-.1-.4-.2-.9-.4-1.3l-37-93-36 3.4s45.7 81.8 50 89.6z" fill="url(#g)"/></svg>

<svg xmlns="http://www.w3.org/2000/svg" viewBox="0 0 128 128"><linearGradient id="a" x1="100.777" x2="86.576" y1="85.094" y2="91.058" gradientUnits="userSpaceOnUse"><stop offset=".09" stop-color="#1a5964"/><stop offset=".3" stop-color="#137078"/><stop offset=".5" stop-color="#0e8085"/><stop offset=".66" stop-color="#0c858a"/><stop offset="1" stop-color="#0a8b8f"/></linearGradient><linearGradient id="b" x1="99.581" x2="130.166" y1="56.123" y2="75.523" gradientUnits="userSpaceOnUse"><stop offset="0" stop-color="#079ea0"/><stop offset=".43" stop-color="#14878e"/><stop offset="1" stop-color="#256a77"/></linearGradient><linearGradient id="c" x1="112" x2="112" y1="16.835" y2="120.497" gradientUnits="userSpaceOnUse"><stop offset="0" stop-color="#b4b4b4"/><stop offset=".8" stop-color="#03abab"/><stop offset="1" stop-color="#137980"/></linearGradient><linearGradient id="d" x1="59.349" x2="135.485" y1="57.417" y2="42.575" gradientUnits="userSpaceOnUse"><stop offset="0" stop-color="#0f5d64"/><stop offset=".1" stop-color="#097a7e"/><stop offset=".23" stop-color="#049395"/><stop offset=".34" stop-color="#01a3a3"/><stop offset=".43" stop-color="#00a8a8"/><stop offset="1" stop-color="#4ebcc1"/></linearGradient><linearGradient id="e" x1="-10.003" x2="26.772" y1="72.033" y2="50.748" gradientUnits="userSpaceOnUse"><stop offset="0" stop-color="#00a9a9"/><stop offset=".65" stop-color="#049496"/><stop offset="1" stop-color="#088286"/></linearGradient><linearGradient id="f" x1="2.06" x2="32.014" y1="91.643" y2="89.985" gradientUnits="userSpaceOnUse"><stop offset="0" stop-color="#20626e"/><stop offset="1" stop-color="#069d9f"/></linearGradient><linearGradient id="g" x1="41.036" x2="36.336" y1="5.266" y2="101.578" gradientUnits="userSpaceOnUse"><stop offset="0" stop-color="#99cbd2"/><stop offset=".9" stop-color="#498f93"/><stop offset="1" stop-color="#2e7b7d"/></linearGradient><path fill="url(#a)" d="M98 121h3V49l-6 9v56z"/><path fill="url(#b)" d="M98 121V51l23-44h5v54l-22 60z"/><path fill="url(#c)" d="M126 121H98c2.9-5.7 14.1-29.2 19-48 8.5-33.1 9-58 9-58z"/><path fill="url(#d)" d="M126 7H89L63 69l11 30h1c.4 0 1-.3 2-2 4.1-7.6 49-90 49-90"/><path fill="url(#e)" d="m2 121.7 3-.7 27-49V56L5 9 2 7.4z"/><path fill="url(#f)" d="M32 59.1c-2.3 6.9-7.9 23.6-13.6 34.3C8.2 113 2 121.7 2 121.7s23.7 2 30-5.7V60z"/><path fill="url(#g)" d="M52 97c1 1.8 1.6 2 2 2h21c.2-.2.4-.4.4-.7-.1-.4-.2-.9-.4-1.3L38 4 2 7.4S47.7 89.2 52 97"/></svg>
